packages/katcn/src/icons/svg/storage.svg

<svg width="24" height="25" viewBox="0 0 24 25" fill="none" xmlns="http://www.w3.org/2000/svg">
<path d="M20.2 4.97601H3.8C2.2 4.97601 1 6.17601 1 7.77601V12.976V18.176C1 19.776 2.2 20.976 3.8 20.976H20.2C21.7 20.976 23 19.776 23 18.176V12.976V7.77601C23 6.17601 21.8 4.97601 20.2 4.97601ZM3 7.77601C3 7.37601 3.4 6.97601 3.8 6.97601H20.2C20.6 6.97601 21 7.37601 21 7.77601V11.976H3V7.77601ZM21 18.176C21 18.576 20.6 18.976 20.2 18.976H3.8C3.4 18.976 3 18.576 3 18.176V13.976H21V18.176Z" fill="black"/>
<path d="M11.1 8.47601H5.6C5 8.47601 4.6 8.87601 4.6 9.47601C4.6 10.076 5 10.476 5.6 10.476H11.1C11.7 10.476 12.1 10.076 12.1 9.47601C12.1 8.87601 11.6 8.47601 11.1 8.47601Z" fill="black"/>
<path d="M5.6 17.476H11.1C11.7 17.476 12.1 17.076 12.1 16.476C12.1 15.876 11.7 15.476 11.1 15.476H5.6C5 15.476 4.6 15.876 4.6 16.476C4.6 17.076 5.1 17.476 5.6 17.476Z" fill="black"/>
</svg>

<svg xmlns="http://www.w3.org/2000/svg" fill="none" viewBox="0 0 24 25"><path fill="#000" d="M20.2 4.976H3.8c-1.6 0-2.8 1.2-2.8 2.8v10.4c0 1.6 1.2 2.8 2.8 2.8h16.4c1.5 0 2.8-1.2 2.8-2.8v-10.4c0-1.6-1.2-2.8-2.8-2.8M3 7.776c0-.4.4-.8.8-.8h16.4c.4 0 .8.4.8.8v4.2H3zm18 10.4c0 .4-.4.8-.8.8H3.8c-.4 0-.8-.4-.8-.8v-4.2h18z"/><path fill="#000" d="M11.1 8.476H5.6c-.6 0-1 .4-1 1s.4 1 1 1h5.5c.6 0 1-.4 1-1s-.5-1-1-1m-5.5 9h5.5c.6 0 1-.4 1-1s-.4-1-1-1H5.6c-.6 0-1 .4-1 1s.5 1 1 1"/></svg>
